X:1
T:Horse's Leotard
L:1/8
M:6/8
I:linebreak $
K:D
V:1 treble 
V:1
 D |: E2 E BAF | ABc dcd | E2 E BAF | AFB AFD | E2 E BAF | ABc d2 e | fed edB |1$ AFB AFD :|2 %9
 dcB AFA || Bcd e2 e | fed e2 d | Bcd e2 f | gfe dBA |1 Bcd e2 e | fed e2 d |$ ABc d2 B | %17
 AFB AFD :|2 gfe fed | edB d2 B | ABc d2 B | AFB AFD || %22
